symbols/web/panorama_wide_angle/materialsymbolsoutlined/panorama_wide_angle_gradN25fill1_40px.svg

<svg xmlns="http://www.w3.org/2000/svg" height="40" width="40"><path d="M20 33.083q-3.75 0-7.458-.354-3.709-.354-7.334-1.271Q4.375 28.625 4 25.771T3.625 20q0-2.917.375-5.771t1.208-5.687q3.334-.834 6.98-1.229 3.645-.396 7.812-.396t7.833.396q3.667.395 6.959 1.229.833 2.833 1.208 5.687T36.375 20q0 2.917-.375 5.771t-1.208 5.687q-3.625.875-7.334 1.25-3.708.375-7.458.375Z"/></svg>

<svg xmlns="http://www.w3.org/2000/svg" height="40" width="40"><path d="M20 33.083Q16.25 33.083 12.542 32.729Q8.833 32.375 5.208 31.458Q4.375 28.625 4 25.771Q3.625 22.917 3.625 20Q3.625 17.083 4 14.229Q4.375 11.375 5.208 8.542Q8.542 7.708 12.188 7.313Q15.833 6.917 20 6.917Q24.167 6.917 27.833 7.313Q31.5 7.708 34.792 8.542Q35.625 11.375 36 14.229Q36.375 17.083 36.375 20Q36.375 22.917 36 25.771Q35.625 28.625 34.792 31.458Q31.167 32.333 27.458 32.708Q23.75 33.083 20 33.083Z"/></svg>
